tenants/donaldduck/icons/direction_down.svg

<svg fill="none" height="24" viewBox="0 0 24 24" width="24" xmlns="http://www.w3.org/2000/svg"><path d="m21.999 8.66018c.0006.21341-.0465.42426-.1381.61705-.0915.19278-.2251.36259-.3909.49695l-8.57 6.90002c-.2557.2104-.5765.3254-.9075.3254-.3311 0-.6519-.115-.9075-.3254l-8.57004-7.14402c-.29174-.24241-.47523-.59078-.51012-.96848-.03488-.3777.08171-.75378.32412-1.04552.2424-.29174.59078-.47523.96848-.51012.37769-.03488.75378.08171 1.04552.32412l7.65704 6.38802 7.657-6.17102c.2097-.17454.465-.28538.7357-.31943s.5455.01012.7919.12728c.2465.11716.4542.30241.5987.53387.1444.23146.2196.49944.2167.77228z" fill="#000"/></svg>

<svg width="24" height="24" viewBox="0 0 24 24" fill="none" xmlns="http://www.w3.org/2000/svg">
<path d="M21.999 8.66018C21.9996 8.87359 21.9525 9.08444 21.8609 9.27723C21.7694 9.47001 21.6358 9.63982 21.47 9.77418L12.9 16.6742C12.6443 16.8846 12.3235 16.9996 11.9925 16.9996C11.6614 16.9996 11.3406 16.8846 11.085 16.6742L2.51496 9.53018C2.22322 9.28777 2.03973 8.9394 2.00484 8.5617C1.96996 8.184 2.08655 7.80792 2.32896 7.51618C2.57136 7.22444 2.91974 7.04095 3.29744 7.00606C3.67513 6.97118 4.05122 7.08777 4.34296 7.33018L12 13.7182L19.657 7.54718C19.8667 7.37264 20.122 7.2618 20.3927 7.22775C20.6634 7.1937 20.9382 7.23787 21.1846 7.35503C21.4311 7.47219 21.6388 7.65744 21.7833 7.8889C21.9277 8.12036 22.0029 8.38834 22 8.66118L21.999 8.66018Z" fill="black"/>
</svg>
